src/2-landmarks/subway-exterior--door-dop.svg

<svg width="1300" height="1000" viewBox="0 0 1300 1000" fill="none" xmlns="http://www.w3.org/2000/svg"><path d="M1300 100H0v7h1300v-7Z" fill="#000"/><path fill-rule="evenodd" clip-rule="evenodd" d="M672.388 337.83c1.835-.165 8.802-1.278 12.434-3.009 4.345-2.07 8.287-5.681 10.881-9.598 1.871-2.826 3.555-8.377 4.348-11.251.334-1.209.551-2.445.694-3.691l2.768-24.167c.13-1.801.141-3.965-.016-5.762-.419-4.765-1.691-8.901-4.075-13.093-2.385-4.191-5.288-7.801-9.24-10.719-3.952-2.918-9.017-5.282-13.877-6.44-4.847-1.048-6.715-1.197-11.673-.931-4.604.44-7.227 1.117-11.462 2.955-5.455 2.367-8.43 4.38-12.421 8.741-3.743 4.091-5.453 6.947-7.238 12.161-1.737 5.076-2.187 8.269-1.74 13.601.188 2.242.985 5.678.985 5.678l6.183 23.705c.287 1.102.633 2.185 1.087 3.228 1.109 2.543 3.504 7.554 6.247 10.348 4.054 4.129 7.255 5.886 12.864 7.482 4.976 1.417 13.251.762 13.251.762Zm-.61-6.973c1.479-.133 7.089-1.049 10.01-2.495 3.494-1.73 6.66-4.759 8.737-8.05 1.454-2.304 2.758-6.77 3.41-9.242.307-1.166.502-2.355.629-3.555l2.129-20.124c.099-1.517.101-3.34-.031-4.854-.353-4.016-1.392-7.504-3.327-11.043-1.935-3.538-4.286-6.589-7.48-9.06-3.194-2.471-7.284-4.478-11.204-5.47-3.909-.898-5.414-1.03-9.409-.822-3.709.357-5.82.918-9.227 2.453-4.388 1.976-6.779 3.662-9.981 7.323-3.003 3.434-4.372 5.835-5.793 10.221-1.384 4.271-1.736 6.959-1.359 11.453.159 1.889.813 4.786.813 4.786l5.009 19.794c.268 1.059.589 2.101 1.016 3.107.933 2.198 2.831 6.254 4.987 8.549 3.28 3.491 5.865 4.982 10.39 6.344 4.015 1.209 10.681.685 10.681.685Z" fill="#000"/><path fill-rule="evenodd" clip-rule="evenodd" d="M400 843V220c0-11.046 8.954-20 20-20h460c11.046 0 20 8.954 20 20v623h400v7H900v50h400v100H0V900h400v-50H0v-7h400Zm105-636h288v650.13l-1-.129-10-139.997-60-156.496-3.5-22 9.902 18.39c.393.728.96 1.348 1.651 1.804l42.392 27.94a.836.836 0 0 0 1.036-.093c11.275-10.738 11.559-28.633.63-39.723L760 532.509s-49-143.497-67-182.996c-2.506-5.5-8.5-9.428-14.5-9.5-41.5-.5-54 13.5-72.5 46.999-17.528 36.034-30.715 83.36-31 84.998-8 45.999-17 103.498-17 103.498l-9.424 23.807c-4.675 11.81 3.731 24.694 16.423 25.173a.925.925 0 0 0 .789-.392l33.712-48.088-31 167.996-62.084 114.136a6.831 6.831 0 0 0 2.084 8.861l-3.5 5V207Zm295 651.03V850h93v50h-93v-11.227l27-7.772v-1.907c0-10.059-7.472-18.554-17.45-19.836L800 858.03Zm-7 32.758L761 900h32v-9.212ZM800 207v636h93V560h-53c-11.046 0-20-8.954-20-20V250c0-11.046 8.954-20 20-20h53v-8c0-8.284-6.716-15-15-15h-78ZM498 850h-91v50h91v-50Zm7 35.938L530 900h-25v-14.062ZM584 900l-38-1-36-20.5 9.758-12.963a7.178 7.178 0 0 1-2.575-9.498L577 744l18.5-106.75L617 523.5s-5.5 44 44 123.5c2.802 4.5-22 97-22 97l-75.5 135.5 14.627 7.501a10 10 0 0 1 5.392 7.95L584 900Zm143 0-1.5-7.5a6.636 6.636 0 0 1-6.603-5.969L704.5 744.004 666 664.506l-19 79.498-73 131.997 8.372 4.751a20 20 0 0 1 10.128 17.394V900H727Zm-229-57h-91V560h51c11.046 0 20-8.954 20-20V250c0-11.046-8.954-20-20-20h-51v-8c0-8.284 6.716-15 15-15h76v636Zm395-606h-51c-8.284 0-15 6.716-15 15v286c0 8.284 6.716 15 15 15h51V237ZM407 553V237h49c8.284 0 15 6.716 15 15v286c0 8.284-6.716 15-15 15h-49Zm400.937 312.274L784.5 863.47 774 716.889l-60-157.087C699.433 412.238 687.621 366.8 681.517 352.84c-2.08-4.758-7.201-6.842-12.393-6.84-12.272.005-36.29 4.386-53.125 35.217C597.321 415.423 582 471.752 582 471.752l-17 104.559-10.365 26.618c-2.229 5.726 1.995 11.904 8.14 11.904a.437.437 0 0 0 .356-.183l27.369-38.339 20.5-59.534 35.645-98.078a1.484 1.484 0 0 1 2.821.91l-27.164 96.099a6.795 6.795 0 0 0-.269 2.149c.312 7.767 3.556 56.355 36.467 109.982 1.5 2.444 54.5 115.564 54.5 115.564l12.876 135.033a8.447 8.447 0 0 0 7.124 7.547L735.5 899l81.672-23.703-.004-.237a10 10 0 0 0-9.231-9.786ZM715 517c-4-82.5-27-166-27-166l43 117 22.5 66.485 19.034 22.783c4.975 5.955 4.255 14.8-1.618 19.873a.71.71 0 0 1-.868.046l-34.098-23.565S715.17 520.507 715 517Z" fill="#000"/><path d="M0 560v-7h328c8.284 0 15-6.716 15-15V252c0-8.284-6.716-15-15-15H0v-7h330c11.046 0 20 8.954 20 20v290c0 11.046-8.954 20-20 20H0Zm1300-7v7H970c-11.046 0-20-8.954-20-20V250c0-11.046 8.954-20 20-20h330v7H972c-8.284 0-15 6.716-15 15v286c0 8.284 6.716 15 15 15h328Z" fill="#000"/></svg>

<svg width="1300" height="1000" viewBox="0 0 1300 1000" fill="none" xmlns="http://www.w3.org/2000/svg">
<path d="M1300 100H0V107H1300V100Z" fill="black"/>
<path fill-rule="evenodd" clip-rule="evenodd" d="M672.388 337.83C674.223 337.665 681.19 336.552 684.822 334.821C689.167 332.751 693.109 329.14 695.703 325.223C697.574 322.397 699.258 316.846 700.051 313.972C700.385 312.763 700.602 311.527 700.745 310.281L703.513 286.114C703.643 284.313 703.654 282.149 703.497 280.352C703.078 275.587 701.806 271.451 699.422 267.259C697.037 263.068 694.134 259.458 690.182 256.54C686.23 253.622 681.165 251.258 676.305 250.1C671.458 249.052 669.59 248.903 664.632 249.169C660.028 249.609 657.405 250.286 653.17 252.124C647.715 254.491 644.74 256.504 640.749 260.865C637.006 264.956 635.296 267.812 633.511 273.026C631.774 278.102 631.324 281.295 631.771 286.627C631.959 288.869 632.756 292.305 632.756 292.305L638.939 316.01C639.226 317.112 639.572 318.195 640.026 319.238C641.135 321.781 643.53 326.792 646.273 329.586C650.327 333.715 653.528 335.472 659.137 337.068C664.113 338.485 672.388 337.83 672.388 337.83ZM671.778 330.857C673.257 330.724 678.867 329.808 681.788 328.362C685.282 326.632 688.448 323.603 690.525 320.312C691.979 318.008 693.283 313.542 693.935 311.07C694.242 309.904 694.437 308.715 694.564 307.515L696.693 287.391C696.792 285.874 696.794 284.051 696.662 282.537C696.309 278.521 695.27 275.033 693.335 271.494C691.4 267.956 689.049 264.905 685.855 262.434C682.661 259.963 678.571 257.956 674.651 256.964C670.742 256.066 669.237 255.934 665.242 256.142C661.533 256.499 659.422 257.06 656.015 258.595C651.627 260.571 649.236 262.257 646.034 265.918C643.031 269.352 641.662 271.753 640.241 276.139C638.857 280.41 638.505 283.098 638.882 287.592C639.041 289.481 639.695 292.378 639.695 292.378L644.704 312.172C644.972 313.231 645.293 314.273 645.72 315.279C646.653 317.477 648.551 321.533 650.707 323.828C653.987 327.319 656.572 328.81 661.097 330.172C665.112 331.381 671.778 330.857 671.778 330.857Z" fill="black"/>
<path fill-rule="evenodd" clip-rule="evenodd" d="M400 843V220C400 208.954 408.954 200 420 200H880C891.046 200 900 208.954 900 220V843H1300V850H900V900H1300V1000H0V900H400V850H0V843H400ZM505 207H793V857.13L792 857.001L782 717.004L722 560.508L718.5 538.508L728.402 556.898C728.795 557.626 729.362 558.246 730.053 558.702L772.445 586.642C772.77 586.856 773.2 586.817 773.481 586.549C784.756 575.811 785.04 557.916 774.111 546.826L760 532.509C760 532.509 711 389.012 693 349.513C690.494 344.013 684.5 340.085 678.5 340.013C637 339.513 624.5 353.513 606 387.012C588.472 423.046 575.285 470.372 575 472.01C567 518.009 558 575.508 558 575.508L548.576 599.315C543.901 611.125 552.307 624.009 564.999 624.488C565.311 624.499 565.608 624.352 565.788 624.096L599.5 576.008L568.5 744.004L506.416 858.14C504.755 861.193 505.652 865.008 508.5 867.001L505 872.001V207ZM800 858.03V850H893V900H800V888.773L827 881.001V879.094C827 869.035 819.528 860.54 809.55 859.258L800 858.03ZM793 890.788L761 900H793V890.788ZM800 207V843H893V560H840C828.954 560 820 551.046 820 540V250C820 238.954 828.954 230 840 230H893V222C893 213.716 886.284 207 878 207H800ZM498 850H407V900H498V850ZM505 885.938L530 900H505V885.938ZM584 900L546 899L510 878.5L519.758 865.537C516.523 863.55 515.395 859.388 517.183 856.039L577 744L595.5 637.25L617 523.5C617 523.5 611.5 567.5 661 647C663.802 651.5 639 744 639 744L563.5 879.5L578.127 887.001C581.163 888.558 583.196 891.555 583.519 894.951L584 900ZM727 900L725.5 892.5C722.093 892.5 719.239 889.921 718.897 886.531L704.5 744.004L666 664.506L647 744.004L574 876.001L582.372 880.752C588.632 884.305 592.5 890.948 592.5 898.146V900H727ZM498 843H407V560H458C469.046 560 478 551.046 478 540V250C478 238.954 469.046 230 458 230H407V222C407 213.716 413.716 207 422 207H498V843ZM893 237H842C833.716 237 827 243.716 827 252V538C827 546.284 833.716 553 842 553H893V237ZM407 553V237H456C464.284 237 471 243.716 471 252V538C471 546.284 464.284 553 456 553H407ZM807.937 865.274L784.5 863.47L774 716.889L714 559.802C699.433 412.238 687.621 366.8 681.517 352.84C679.437 348.082 674.316 345.998 669.124 346C656.852 346.005 632.834 350.386 615.999 381.217C597.321 415.423 582 471.752 582 471.752L565 576.311L554.635 602.929C552.406 608.655 556.63 614.833 562.775 614.833C562.916 614.833 563.049 614.765 563.131 614.65L590.5 576.311L611 516.777L646.645 418.699C646.858 418.113 647.415 417.722 648.039 417.722C649.022 417.722 649.733 418.662 649.466 419.609L622.302 515.708C622.102 516.417 622.003 517.121 622.033 517.857C622.345 525.624 625.589 574.212 658.5 627.839C660 630.283 713 743.403 713 743.403L725.876 878.436C726.243 882.286 729.178 885.395 733 885.983L735.5 899L817.172 875.297L817.168 875.06C817.073 869.906 813.076 865.67 807.937 865.274ZM715 517C711 434.5 688 351 688 351L731 468L753.5 534.485L772.534 557.268C777.509 563.223 776.789 572.068 770.916 577.141C770.671 577.352 770.314 577.371 770.048 577.187L735.95 553.622C735.95 553.622 715.17 520.507 715 517Z" fill="black"/>
<path d="M0 560V553H328C336.284 553 343 546.284 343 538V252C343 243.716 336.284 237 328 237H0V230H330C341.046 230 350 238.954 350 250V540C350 551.046 341.046 560 330 560H0Z" fill="black"/>
<path d="M1300 553V560H970C958.954 560 950 551.046 950 540V250C950 238.954 958.954 230 970 230H1300V237H972C963.716 237 957 243.716 957 252V538C957 546.284 963.716 553 972 553H1300Z" fill="black"/>
</svg>
